default/images/icon/admin-site-alt3.svg

<svg xmlns="http://www.w3.org/2000/svg" viewBox="0 0 20 20"><rect x="0" fill="none" width="20" height="20"/><g><path d="M9 0C4.03 0 0 4.03 0 9s4.03 9 9 9 9-4.03 9-9-4.03-9-9-9zM1.11 9.68h2.51c.04.91.167 1.814.38 2.7H1.84c-.403-.85-.65-1.764-.73-2.7zm8.57-5.4V1.19c.964.366 1.756 1.08 2.22 2 .205.347.386.708.54 1.08l-2.76.01zm3.22 1.35c.232.883.37 1.788.41 2.7H9.68v-2.7h3.22zM8.32 1.19v3.09H5.56c.154-.372.335-.733.54-1.08.462-.924 1.255-1.64 2.22-2.01zm0 4.44v2.7H4.7c.04-.912.178-1.817.41-2.7h3.21zm-4.7 2.69H1.11c.08-.936.327-1.85.73-2.7H4c-.213.886-.34 1.79-.38 2.7zM4.7 9.68h3.62v2.7H5.11c-.232-.883-.37-1.788-.41-2.7zm3.63 4v3.09c-.964-.366-1.756-1.08-2.22-2-.205-.347-.386-.708-.54-1.08l2.76-.01zm1.35 3.09v-3.04h2.76c-.154.372-.335.733-.54 1.08-.464.92-1.256 1.634-2.22 2v-.04zm0-4.44v-2.7h3.62c-.04.912-.178 1.817-.41 2.7H9.68zm4.71-2.7h2.51c-.08.936-.327 1.85-.73 2.7H14c.21-.87.337-1.757.38-2.65l.01-.05zm0-1.35c-.046-.894-.176-1.78-.39-2.65h2.16c.403.85.65 1.764.73 2.7l-2.5-.05zm1-4H13.6c-.324-.91-.793-1.76-1.39-2.52 1.244.56 2.325 1.426 3.14 2.52h.04zm-9.6-2.52c-.597.76-1.066 1.61-1.39 2.52H2.65c.815-1.094 1.896-1.96 3.14-2.52zm-3.15 12H4.4c.324.91.793 1.76 1.39 2.52-1.248-.567-2.33-1.445-3.14-2.55l-.01.03zm9.56 2.52c.597-.76 1.066-1.61 1.39-2.52h1.76c-.82 1.08-1.9 1.933-3.14 2.48l-.01.04z"/></g></svg>

<?xml version="1.0" encoding="utf-8"?>
<!-- Generator: Adobe Illustrator 24.3.0, SVG Export Plug-In . SVG Version: 6.00 Build 0)  -->
<svg version="1.1" id="レイヤー_1" xmlns="http://www.w3.org/2000/svg" xmlns:xlink="http://www.w3.org/1999/xlink" x="0px"
	 y="0px" viewBox="0 0 20 20" style="enable-background:new 0 0 20 20;" xml:space="preserve">
<style type="text/css">
	.st0{fill:none;}
	.st1{fill:#FFFFFF;}
</style>
<rect class="st0" width="20" height="20"/>
<g>
	<path class="st1" d="M9,0C4,0,0,4,0,9s4,9,9,9s9-4,9-9S14,0,9,0z M1.1,9.7h2.5c0,0.9,0.2,1.8,0.4,2.7H1.8
		C1.4,11.5,1.2,10.6,1.1,9.7z M9.7,4.3V1.2c1,0.4,1.8,1.1,2.2,2c0.2,0.3,0.4,0.7,0.5,1.1L9.7,4.3z M12.9,5.6
		c0.2,0.9,0.4,1.8,0.4,2.7H9.7V5.6C9.7,5.6,12.9,5.6,12.9,5.6z M8.3,1.2v3.1H5.6c0.2-0.4,0.3-0.7,0.5-1.1C6.6,2.3,7.4,1.6,8.3,1.2z
		 M8.3,5.6v2.7H4.7c0-0.9,0.2-1.8,0.4-2.7H8.3z M3.6,8.3H1.1c0.1-0.9,0.3-1.8,0.7-2.7H4C3.8,6.5,3.7,7.4,3.6,8.3z M4.7,9.7h3.6v2.7
		H5.1C4.9,11.5,4.7,10.6,4.7,9.7z M8.3,13.7v3.1c-1-0.4-1.8-1.1-2.2-2c-0.2-0.3-0.4-0.7-0.5-1.1L8.3,13.7z M9.7,16.8v-3h2.8
		c-0.2,0.4-0.3,0.7-0.5,1.1C11.4,15.7,10.6,16.4,9.7,16.8L9.7,16.8z M9.7,12.3V9.6h3.6c0,0.9-0.2,1.8-0.4,2.7H9.7z M14.4,9.6h2.5
		c-0.1,0.9-0.3,1.9-0.7,2.7H14C14.2,11.5,14.3,10.6,14.4,9.6L14.4,9.6z M14.4,8.3c0-0.9-0.2-1.8-0.4-2.7h2.2
		c0.4,0.8,0.6,1.8,0.7,2.7C16.9,8.3,14.4,8.3,14.4,8.3z M15.4,4.3h-1.8c-0.3-0.9-0.8-1.8-1.4-2.5C13.5,2.3,14.5,3.2,15.4,4.3
		L15.4,4.3z M5.8,1.8C5.2,2.5,4.7,3.4,4.4,4.3H2.7C3.5,3.2,4.5,2.3,5.8,1.8z M2.6,13.8h1.8c0.3,0.9,0.8,1.8,1.4,2.5
		C4.5,15.7,3.5,14.8,2.6,13.8L2.6,13.8z M12.2,16.3c0.6-0.8,1.1-1.6,1.4-2.5h1.8C14.5,14.8,13.5,15.7,12.2,16.3L12.2,16.3z"/>
</g>
</svg>
